X:1
T:Title
%%score { ( 1 3 ) | 2 }
L:1/8
M:3/4
K:Eb
V:1 treble nm="Grand Piano"
V:3 treble 
V:2 bass 
V:1
 z2 z2[Q:1/4=94] G>G | G3 G EF | A G3 E>E | [DF]3 [DF] [CE][DF] |[M:2/4] G4 |[M:1/4] G>G | %6
[M:3/4] G3 G EF | A G3 E>E | [CF]3 [CF] ED |[M:2/4] E4 |[M:1/4] G>G |[M:3/4] [DF]3 [DF] [DF][DF] | %12
 [EG]2 [EG]2 [=EG]>[EG] | [FA]3 [FA] [EG][DF] |[M:2/4] [EG]4 |[M:1/4] [EG]>[FA] | %16
[M:3/4] [GB]3 G AB | d c3 [Ec]>[Ec] | [EB]3 [EB] [DA]D |[M:2/4] E4 |[M:1/4] B>B |[M:3/4] d4 z2 | %22
 [GB]2 [Ge]2 [EG]>[EG] | [DF]3 [Ac] [GB][FA] |[M:2/4] G4 |[M:1/4] B>B |[M:3/4] d4 z2 | %27
 [GB]2 [Ge]2 [Ec]>[Ec] | [EB]3 [EB] [DA]D |[M:2/4] E4 |] %30
V:2
 z2 z2 [E,B,E]>[E,B,E] | [E,B,E]3 [E,B,E] [E,G,][E,A,E] | [E,CE] [E,B,E]3 [E,G,B,]>[E,G,C] | %3
 [B,,B,]3 [B,,B,] [B,,B,][B,,B,] |[M:2/4] [E,B,E]4 |[M:1/4] [E,B,E]>[E,B,E] | %6
[M:3/4] [E,B,E]3 [E,B,E] [E,G,][E,A,E] | [E,CE] [E,B,E]3 [E,G,B,]>[E,G,B,] | %8
 [A,,A,]3 [A,,A,] [B,,G,B,][B,,F,B,] |[M:2/4] [E,G,B,]4 |[M:1/4] [E,B,E]>[E,B,E] | %11
[M:3/4] [B,,B,]3 [B,,B,] [B,,B,][B,,B,] | [E,B,]2 [E,B,]2 [C,C]>[C,C] | %13
 [F,C]3 [F,C] [B,,B,][B,,B,] |[M:2/4] [E,B,]4 |[M:1/4] [E,B,]>[E,E] | %16
[M:3/4] [E,E]3 [E,B,E] [F,B,D][K:treble][G,B,E] | [A,F][K:bass] [A,E]3 [A,,A,]>[A,,A,] | %18
 [B,,G,]3 [B,,G,] [B,,F,][B,,A,B,] |[M:2/4] [E,G,B,]4 |[M:1/4] z2 | %21
[M:3/4] [B,,B,]>[B,,B,] [B,,B,][B,,B,] [B,,B,][B,,B,] | [E,B,]2 [E,B,]2 [E,B,]>[E,B,] | %23
 [B,,B,]3 [B,,B,] [B,,B,][B,,B,] |[M:2/4] [E,B,E]4 |[M:1/4] z2 | %26
[M:3/4] [B,,B,]>[B,,B,] [B,,B,][B,,B,] [B,,B,][B,,B,] | [E,B,]2 [E,B,]2 [A,,A,]>[G,,A,] | %28
 [B,,G,]3 [B,,F,] [B,,F,][B,,A,] |[M:2/4] [E,G,B,]4 |] %30
V:3
 x6 | x6 | x6 | x6 |[M:2/4] x4 |[M:1/4] x2 |[M:3/4] x6 | x6 | x6 |[M:2/4] x4 |[M:1/4] x2 | %11
[M:3/4] x6 | x6 | x6 |[M:2/4] x4 |[M:1/4] x2 |[M:3/4] x6 | x6 | x6 |[M:2/4] x4 |[M:1/4] x2 | %21
[M:3/4] A>A A[Ad] [Ac][AB] | x6 | x6 |[M:2/4] x4 |[M:1/4] x2 |[M:3/4] A>A A[Ad] [Ac][AB] | x6 | %28
 x6 |[M:2/4] x4 |] %30

